X: 1
T: Colleen's Delight
M: 4/4
L: 1/8
R: reel
K: Gmaj
B2AB GE~E2|cE~E2 DFGA|BGAB AGEG|DddB A2GA|
B2AB GE~E2|cE~E2 DFGA|Bd~d2 eBdB|AddB A2GA||
Bded ~g3e|dBAB DFGA|(3Bcd ef g2fg|eaag (3efg dc|
Bded ~g3e|dBAB degb|agab g2ed|BedB A2GA||
